X: 3
T: The Cuckoo's Nest
R: hornpipe
M: 4/4
L: 1/8
K: Gmaj
dc | B2BA GBdg | fdcB cedc | B2BG D/E/FGA | BGcB AAdc |B2BA GBdg | fdcB cedc | B2GD E/F/GAc | B2G2 G2:| (or something like that)dc | B2BA GBdg | fdcB cedc | d2B2 dBGA | BAAG A2dc |B2BA GB/c/dg | fdcB cedc | ddBD DBAc | B2G2 G2:|


Tune 2395	Setting 2395

